src/images/std-icons/std-share.svg

<svg xmlns="http://www.w3.org/2000/svg" width="512" height="512" viewBox="0 0 512 512">
  <title>share</title>
  <path fill="#000" fill-rule="nonzero" d="M404.876373,416.00256 C420.512093,389.067192 414.432753,354.780937 390.489478,334.863372 C366.546203,314.945808 331.726147,315.2093 308.08704,335.486933 L190.44608,267.56672 C190.54144,267.04704 190.530347,266.522667 190.612693,266.001493 C190.88384,264.246827 191.04896,262.488747 191.17568,260.713387 C191.298987,259.08608 191.39584,257.472427 191.39456,255.847893 C191.38816,254.47744 191.303893,253.112747 191.210453,251.739947 C191.079467,249.70304 190.885547,247.68768 190.564267,245.677867 C190.496853,245.264213 190.507947,244.845867 190.431787,244.432853 L308.071467,176.513707 C331.763364,196.769125 366.602211,197.010317 390.572283,177.084865 C414.542355,157.159413 420.671415,122.863086 405.086324,95.8687731 C389.501233,68.8744603 356.735267,57.0340679 327.494234,67.8298989 C298.253201,78.62573 281.042516,108.917573 286.738133,139.563093 L169.240533,207.40032 C166.292836,204.838318 163.114906,202.553922 159.7472,200.576213 C157.882404,199.621047 155.970804,198.760157 154.019627,197.9968 C153.23264,197.636267 152.458667,197.26208 151.657387,196.93376 C149.288448,195.960918 146.862656,195.132729 144.393387,194.45376 C143.27744,194.146133 142.1472,193.935787 141.01632,193.687893 C135.470949,192.320366 129.74909,191.808712 124.049067,192.170667 C122.820693,192.24384 121.62816,192.493227 120.408107,192.635307 C117.796713,192.905428 115.204967,193.34007 112.64832,193.93664 C111.394987,194.242347 110.182613,194.637013 108.948267,195.017387 C106.521705,195.759458 104.142249,196.647622 101.822933,197.677013 C100.55872,198.237013 99.31776,198.809173 98.0896,199.45216 C97.3124267,199.858773 96.5002667,200.12928 95.7335467,200.571947 C94.63296,201.207253 93.7559467,202.061013 92.7076267,202.750293 C88.9965449,205.087253 85.5843936,207.868182 82.5467733,211.031467 C81.1601067,212.425387 79.8109867,213.824213 78.5442133,215.362133 C77.0204129,217.241151 75.6056791,219.206051 74.3069867,221.247147 C73.6832,222.205653 72.9013333,222.999893 72.3229867,224.00128 C71.9848533,224.587307 71.8248533,225.219413 71.5069867,225.81184 C70.3924422,227.952009 69.4008243,230.153982 68.53696,232.40704 C67.84512,234.138667 67.1261867,235.846613 66.5956267,237.608747 C66.003308,239.716292 65.5196133,241.852866 65.1464533,244.010027 C64.7773867,245.93856 64.3650133,247.844053 64.17792,249.78048 C64.0103966,251.943059 63.9534335,254.112783 64.0072533,256.281173 C64.0187733,258.201173 63.9773867,260.10688 64.15872,262.012373 C64.4093152,264.188503 64.7724684,266.35019 65.24672,268.488747 C65.63072,270.408747 65.9803733,272.31424 66.5373867,274.19072 C67.12128,276.153387 67.9163733,278.055467 68.6990933,279.979093 C69.4975615,282.031969 70.4025415,284.04181 71.4103467,286.000427 C71.75936,286.654507 71.9364267,287.352107 72.3095467,287.99808 C72.9463467,289.101013 73.80288,289.980587 74.4936533,291.031253 C76.818433,294.728299 79.5862499,298.127425 82.7355733,301.153067 C84.1527467,302.565973 85.5805867,303.942827 87.1473067,305.232 C88.9834715,306.717709 90.9018126,308.09888 92.8932267,309.36896 C93.88544,310.017067 94.71104,310.827307 95.7504,311.426987 C96.4744533,311.84512 97.2407467,312.097067 97.9733333,312.4832 C99.2804267,313.168853 100.598827,313.78048 101.94752,314.3744 C104.187904,315.363111 106.484074,316.220248 108.82432,316.94144 C110.118827,317.34272 111.390933,317.7568 112.708693,318.075733 C115.210827,318.655675 117.746237,319.081295 120.300587,319.350187 C121.559253,319.49952 122.789547,319.75552 124.05824,319.829973 C127.408767,320.006985 130.768055,319.918102 134.104533,319.56416 C136.383458,319.277754 138.645296,318.86877 140.880213,318.338987 C142.08256,318.077867 143.284267,317.854507 144.469333,317.526827 C146.875885,316.861129 149.240912,316.053529 151.552,315.108267 C152.459093,314.739413 153.34016,314.315093 154.230187,313.90336 C156.064853,313.064107 157.953067,312.452693 159.735893,311.423787 C163.107846,309.443205 166.289332,307.154911 169.23968,304.58816 L286.75264,372.437333 C281.010397,403.048612 298.192114,433.336286 327.413312,444.113359 C356.63451,454.890432 389.367574,443.011834 404.876373,416.00256 L404.876373,416.00256 Z"/>
</svg>

<svg xmlns="http://www.w3.org/2000/svg" viewBox="0 0 512 512">
  <title>
    share
  </title>
  <path d="M404.88 416a63.85 63.85 0 0 0-96.8-80.51l-117.63-67.92c.1-.52.08-1.05.16-1.57.27-1.75.44-3.51.57-5.29.12-1.62.22-3.24.21-4.86 0-1.37-.09-2.74-.18-4.11a64.53 64.53 0 0 0-.65-6.06c-.06-.42-.05-.83-.13-1.25l117.64-67.92a64 64 0 1 0-21.33-36.95l-117.5 67.84a63.45 63.45 0 0 0-9.5-6.82 62.56 62.56 0 0 0-5.72-2.58c-.79-.36-1.56-.74-2.36-1.07a63.3 63.3 0 0 0-7.27-2.48c-1.11-.3-2.24-.51-3.37-.76a56.03 56.03 0 0 0-16.97-1.52c-1.23.07-2.42.32-3.64.47-2.61.27-5.2.7-7.76 1.3-1.26.3-2.47.7-3.7 1.08-2.43.74-4.8 1.63-7.13 2.66-1.26.56-2.5 1.13-3.73 1.77-.78.4-1.59.68-2.36 1.12-1.1.64-1.97 1.5-3.02 2.18a53.93 53.93 0 0 0-10.16 8.28 62.43 62.43 0 0 0-4 4.33 63.25 63.25 0 0 0-4.24 5.89c-.63.96-1.4 1.75-1.99 2.75-.34.59-.5 1.22-.81 1.81a63.48 63.48 0 0 0-2.97 6.6c-.7 1.73-1.41 3.44-1.94 5.2-.6 2.1-1.08 4.24-1.45 6.4-.37 1.93-.78 3.83-.97 5.77a63.7 63.7 0 0 0-.17 6.5c0 1.92-.03 3.83.15 5.73.25 2.18.61 4.34 1.09 6.48.38 1.92.73 3.82 1.29 5.7.58 1.96 1.38 3.87 2.16 5.79.8 2.05 1.7 4.06 2.71 6.02.35.65.53 1.35.9 2 .64 1.1 1.5 1.98 2.18 3.03 2.33 3.7 5.1 7.1 8.25 10.12a62.59 62.59 0 0 0 4.4 4.08 62.94 62.94 0 0 0 5.75 4.14c1 .65 1.82 1.46 2.86 2.06.72.42 1.5.67 2.22 1.05a62.95 62.95 0 0 0 10.85 4.46c1.3.4 2.57.82 3.89 1.14 2.5.58 5.04 1 7.6 1.27 1.25.15 2.48.4 3.75.48 3.35.18 6.7.09 10.04-.27 2.28-.28 4.55-.7 6.78-1.22 1.2-.26 2.4-.49 3.59-.81 2.4-.67 4.77-1.48 7.08-2.42.9-.37 1.79-.8 2.68-1.2 1.83-.85 3.72-1.46 5.5-2.49a63.4 63.4 0 0 0 9.51-6.83l117.51 67.85A63.85 63.85 0 0 0 404.88 416z"/>
</svg>
